X: 2141
T: Şeb Ta Seher
C: Hâşim Bey
O: Turkey
F: http://compmusic.upf.edu/node/140
N: hicazkar--sarki--devrihindi--seb_ta_seher--hasim_bey
N: makam= hicazkar
N: form= sarki
N: usul= devrihindi = 7/4
M: 7/4
L: 1/16
K: C _1/4B _7/8e _7/8A ^f
Q: 1/4=60
%%MIDI tuningsystem comma53
g4 gf=ag gfg4a4ga c'bag f4  | =agfe d2f4g3afg feed d4 z4  | 
w:   |   | 
gfed c2de degf edde dccB c4 z4  | 
w:   | 
g4 g=ff4f2 ede4dc d3g fedc  | B2c2 d2ed cdBA G2c4BA BAAG G2z2  | 
w:   |   | 
B4 AGc3dfe dcBc BAAG G3d e=fg2  | \
w:   | 
g4 g=ff4f2 ede4dc d3g fedc  | 
w:   | 
B2c2 d2ed cdBA G2c4BA BAAG G2z2  | \
w:   | 
B4 AGc3dfe dcBc BAAG G3c Bdc2  | 
w:   | 
c4 _1/4e2e4g3=ff4fe ed^f2 edd2  | \
w:   | 
z2=f_1/4e eddc c_BAc BAAG c4 BABA AGG2  | 
w:   | 
z2d4cd e2de f2ed d_bag gfg3def  | \
w:   | 
g2g4g=f f4 f2ed e4 dcd3gfe  | 
w:   | 
dcB2 c2d2 edcd BAG2 c4 BABA AGG2  | \
w:   | 
z2B4AG c3d fedc BcBA AGG3de=f  | 
w:   | 
g2g4g=f f4 f2ed e4 dcd3gfe  | dcB2 c2d2 edcd BAG2 c4 BABA AGG2  | 
w:   |   | 
z2B4AG c3d fedc BcBA AGG3cBd  | c2c4_1/4e2 e4 g3=f f4 feed ^f2ed  | 
w:   |   | 
d2z2 =f_1/4eed dcc_B AcBA AGc4BA BAAG  | 
w:   | 
G2z2 d4 cde2 def2 edd_b aggf g3d  | \
w:   | 
efg2 =f2g2 =a2ba bag^f e2fg _a2gf feed  | 
w:   | 
d3c Bcd=e =fgf_a gf_ed c2Bc _7/8d2cB BAAG  | 
w:   | 
G4 z2=f2 g2=a2 baba g^fe2 fg_a2 gffe  | \
w:   | 
edd3cBc d=e=fg f_agf _edc2 Bc_7/8d2 cBBA  | 
w:   | 
AGG4z2 |
w:   | 


